!!!OTL: Des Pfalzgrafen Töchterlein (51b), S. 161
!!!id: T0188
**kern
*clefG2
*k[f#]
*G:
{8d
8d
8b
=1
4.b
8b
8b
8a
=2
4.a}
=3
{8b
8a
8f#
=4
4.e
8f#
8a
8e
=5
4.d}
=6
{8d
8d
8g
=7
4g
4dd
8b
8a
=8
4.g}
==
*-
!!!minrhy: 8
!!!meters: 3/4 ]  ZZ[3
!!!cut: Des Pfalzgrafen Töchterlein (51b), S. 161
!!!reg: Luxemburg
!!!trd: Singendes Volk, Esch-Alzette 1937 posth.
!!!rhy1: XXX  X_.XXX  X_.
!!!rhy2: XXX  X_.XXX  X_.
!!!key: T0188  08  G 3/4 ]  ZZ[3
!!!mod: SECHSTONSKALA DUR ?]  AMBITUS[8
!!!kad: 2-51
!!!akz: 32_-6-5_11_
!!!fot: 'a__b__c__
!!!for: 'a__a__b__
!!!fok: '/__Sd_^a_
!! PHRAS[AUFTAKTIG]
!!!fkt: Liebeslieder
!!!bem1: Esch-Alz., Sch&uuml;ler WeiP, aufgeschrieben 1922,
!!!bem2: gelernt von der Mutter
!! THILL, Mathias:
!! PR[29] 2K[3] 2G[9] 3K[3] 3G[6] 4A[3] 4Ü[0] 5A[0] 6K[0] 6G[0]
!! 7K[3] 7G[0] 8A[0] MEHR[0] SI[26] ABS[35] SR[11] SP[14]
!! ST[8] 2k[6] 2g[26] 3k[6] 3g[3] 4d[6] 4ü[0] 5d[0] 6k[0] 6g[0]
!! 7k[0] 7g[0] 8d[0] mehr[0] si[46] dm[-20] sr[31] sp[14]
!! 1F[10] 2F[65] 3F[25] 4F[0] LF[0] 2P[0] 3P[0] 4P[0] TRI[0] DF[3] AB[40]
!! TF[0] U3K[0] U3[0] U4[0] U4Ü[0] U5[0] U6K[0] U6[0] U7K[0] U7[0]
!! N1[8] N2K[0] N2[6] N3K[0] N3[14] N4[3] N4Ü[0] N5[22] N6K[0] N6[19]
!!!n7k: 0] N7[19] O1[8] O2K[0] O2[0] O3K[0] O3[0] HÖ[0
!!!RNB: symbol: &uuml;  = u umlaut (UTF-8: Ã¼)
